; generated by PrusaSlicer 2.4.0+win64 on 2022-01-15 at 18:20:40 UTC


;
;

;
;
; 

; external perimeters extrusion width = 0.60mm
; perimeters extrusion width = 0.60mm
; infill extrusion width = 0.60mm
; solid infill extrusion width = 0.60mm
; top infill extrusion width = 0.60mm
; support material extrusion width = 0.50mm

M73 P0 R97
M73 C18
M107
;TYPE:Custom
M190 S65
M109 S210

G28 ; home all axes
G92 E0
G1 Z5 F5000 ; lift nozzle

M117 Wiping 0%...

G1 X2 Y165 F6000
G1 Z0.3 F450
G1 X2 Y15 E16.6 F1500
G92 E0
G1 E-0.5 F2400
G92 E-0.5
G21 ; set units to millimeters
G90 ; use absolute coordinates
M82 ; use absolute distances for extrusion
G92 E0
; Filament gcode
M900 K0.045 ; set K-factor
M207 F1800 S1.0 Z0.5 ; set retract
M208 F1800 S0.0 ; set recover
M107
;LAYER_CHANGE
;Z:0.2
;HEIGHT:0.2
M73 P0 R96
G1 Z.2 F12000
M117 Layer 0
G10 ; retract
G92 E0
G1 Z.7
G1 X134.266 Y113.79
G1 Z.2
G11 ; unretract
G92 E0
;TYPE:Skirt/Brim
;WIDTH:0.6
G1 F2940
G1 X136.034 Y111.704 E.12663
G1 X139.283 Y108.48 E.33865
G1 X143.218 Y105.231 E.57508
G1 X146.999 Y102.65 E.78709
G1 X150.987 Y100.405 E.99911
G1 X154.666 Y98.711 E1.18672
G1 X158.483 Y97.315 E1.37498
G1 X159.469 Y96.985 E1.42316
G1 X163.385 Y95.948 E1.61077
G1 X167.89 Y95.14 E1.82279
G1 X172.448 Y94.723 E2.03481
G1 X177.552 Y94.723 E2.27123
G1 X182.11 Y95.14 E2.48325
G1 X186.615 Y95.948 E2.69527
G1 X191.034 Y97.141 E2.90729
G1 X194.845 Y98.512 E3.0949
G1 X198.547 Y100.19 E3.28315
G1 X199.482 Y100.646 E3.33134
G1 X203.001 Y102.65 E3.51895
G1 X206.782 Y105.231 E3.73097
G1 X210.325 Y108.127 E3.94299
G1 X213.607 Y111.319 E4.155
G1 X216.6 Y114.781 E4.36702
G1 X219.285 Y118.488 E4.57904
G1 X221.64 Y122.413 E4.79106
G1 X223.856 Y127.011 E5.02748
G1 X225.459 Y131.298 E5.2395
G1 X226.687 Y135.707 E5.45152
G1 X227.454 Y139.684 E5.63913
G1 X227.952 Y144.234 E5.85115
G1 X228.056 Y148.81 E6.06317
G1 X227.765 Y153.378 E6.27519
G1 X227.082 Y157.904 E6.48721
G1 X226.011 Y162.354 E6.69923
G1 X224.561 Y166.696 E6.91125
G1 X222.742 Y170.896 E7.12327
G1 X220.568 Y174.924 E7.33529
G1 X218.055 Y178.749 E7.54731
G1 X215.222 Y182.344 E7.75932
G1 X211.888 Y185.884 E7.98457
G1 X185.819 Y210.928 E9.65909
G1 X184.714 Y211.896 E9.72713
G1 X183.628 Y212.688 E9.7894
G1 X182.478 Y213.384 E9.85166
G1 X181.272 Y213.978 E9.91392
G1 X180.02 Y214.466 E9.97617
G1 X178.73 Y214.844 E10.03843
G1 X177.412 Y215.109 E10.10069
G1 X176.072 Y215.259 E10.16315
G1 X174.739 Y215.294 E10.22496
G1 X173.41 Y215.215 E10.28659
G1 X172.094 Y215.023 E10.34823
G1 X170.798 Y214.719 E10.40986
G1 X169.534 Y214.305 E10.4715
G1 X168.309 Y213.785 E10.53314
G1 X167.133 Y213.163 E10.59478
G1 X166.014 Y212.442 E10.65643
G1 X164.961 Y211.628 E10.71807
G1 X138.112 Y185.884 E12.4411
G1 X135.124 Y182.742 E12.64194
G1 X132.255 Y179.176 E12.85396
G1 X129.704 Y175.375 E13.06598
G1 X127.49 Y171.369 E13.278
G1 X125.63 Y167.187 E13.49002
G1 X124.136 Y162.86 E13.70203
G1 X123.022 Y158.421 E13.91405
G1 X122.294 Y153.902 E14.12607
G1 X121.958 Y149.337 E14.33809
G1 X122.016 Y144.761 E14.55011
G1 X122.469 Y140.206 E14.76213
G1 X123.435 Y135.194 E14.99855
G1 X124.706 Y130.797 E15.21057
G1 X126.352 Y126.526 E15.42259
G1 X128.36 Y122.413 E15.63461
G1 X130.715 Y118.488 E15.84663
G1 X133.074 Y115.196 E16.03424
G1 X134.208 Y113.858 E16.11546
G1 X134.632 Y114.218 F12000
G1 F2940
G1 X136.457 Y112.067 E16.24614
G1 X139.673 Y108.878 E16.45594
G1 X143.152 Y105.978 E16.66573
G1 X147.274 Y103.134 E16.89771
G1 X151.22 Y100.911 E17.1075
G1 X154.899 Y99.217 E17.29511
G1 X158.672 Y97.839 E17.48114
G1 X159.612 Y97.523 E17.5271
G1 X163.527 Y96.486 E17.71471
G1 X167.986 Y95.688 E17.9245
G1 X172.496 Y95.278 E18.1343
G1 X177.504 Y95.278 E18.36627
G1 X182.014 Y95.688 E18.57607
G1 X186.473 Y96.486 E18.78586
G1 X190.388 Y97.523 E18.97348
G1 X194.174 Y98.862 E19.1595
G1 X195.101 Y99.217 E19.20546
G1 X198.78 Y100.911 E19.39307
G1 X202.726 Y103.134 E19.60287
G1 X206.465 Y105.689 E19.81266
G1 X209.971 Y108.557 E20.02246
G1 X213.543 Y112.067 E20.25443
G1 X216.177 Y115.143 E20.44204
G1 X218.533 Y118.396 E20.62807
G1 X219.094 Y119.214 E20.67403
G1 X221.161 Y122.697 E20.86164
G1 X223.146 Y126.768 E21.07144
G1 X224.773 Y130.995 E21.28123
G1 X226.03 Y135.346 E21.49103
G1 X226.907 Y139.79 E21.70082
G1 X227.398 Y144.292 E21.91062
G1 X227.499 Y148.82 E22.12041
G1 X227.209 Y153.34 E22.33021
G1 X226.532 Y157.818 E22.54
G1 X225.47 Y162.221 E22.7498
G1 X224.034 Y166.516 E22.95959
G1 X222.232 Y170.672 E23.16939
G1 X220.08 Y174.657 E23.37918
G1 X217.591 Y178.441 E23.58898
G1 X214.786 Y181.997 E23.79877
G1 X211.502 Y185.482 E24.02059
G1 X185.433 Y210.526 E25.69511
G1 X184.375 Y211.454 E25.76029
G1 X183.329 Y212.219 E25.82031
G1 X182.221 Y212.89 E25.88031
G1 X181.059 Y213.463 E25.94033
G1 X179.852 Y213.934 E26.00033
G1 X178.61 Y214.3 E26.06034
G1 X177.34 Y214.556 E26.12035
G1 X176.049 Y214.703 E26.18054
G1 X174.762 Y214.738 E26.24014
G1 X173.482 Y214.663 E26.29957
G1 X172.212 Y214.478 E26.359
G1 X170.962 Y214.186 E26.41843
G1 X169.743 Y213.789 E26.47787
G1 X168.561 Y213.289 E26.53731
G1 X167.426 Y212.689 E26.59674
G1 X166.347 Y211.995 E26.65618
G1 X165.331 Y211.211 E26.71562
G1 X138.498 Y185.482 E28.43764
G1 X135.528 Y182.359 E28.63728
G1 X132.691 Y178.829 E28.84707
G1 X130.168 Y175.067 E29.05687
G1 X127.979 Y171.102 E29.26666
G1 X126.14 Y166.963 E29.47646
G1 X124.664 Y162.681 E29.68625
G1 X123.563 Y158.288 E29.89605
G1 X122.844 Y153.816 E30.10584
G1 X122.513 Y149.299 E30.31564
G1 X122.573 Y144.771 E30.52543
G1 X123.093 Y139.79 E30.75741
G1 X123.97 Y135.346 E30.9672
G1 X125.227 Y130.995 E31.177
G1 X126.854 Y126.768 E31.38679
G1 X128.839 Y122.697 E31.59659
G1 X130.906 Y119.214 E31.7842
G1 X133.527 Y115.521 E31.99399
G1 X134.574 Y114.287 E32.06893
G10 ; retract
G92 E0
G1 Z.7 F12000
G1 X178.185 Y111.227
G1 Z.2
G11 ; unretract
G92 E0
;TYPE:Support material
;WIDTH:0.5
G1 F2940
G1 X181.363 Y111.644 E.12182
G1 X184.483 Y112.336 E.24331
G1 X187.532 Y113.297 E.36479
G1 X190.485 Y114.52 E.48628
G1 X193.32 Y115.996 E.60777
G1 X196.016 Y117.714 E.72925
G1 X198.552 Y119.66 E.85074
G1 X200.909 Y121.819 E.97222
G1 X203.068 Y124.176 E1.09371
G1 X205.014 Y126.712 E1.21519
G1 X206.732 Y129.408 E1.33668
G1 X208.208 Y132.243 E1.45817
G1 X209.431 Y135.196 E1.57965
G1 X210.389 Y138.236 E1.7008
G1 X211.084 Y141.365 E1.82262
G1 X211.501 Y144.535 E1.94411
G1 X211.64 Y147.728 E2.0656
G1 X211.501 Y150.921 E2.18708
G1 X211.084 Y154.091 E2.30857
G1 X210.392 Y157.211 E2.43005
G1 X209.431 Y160.26 E2.55154
G1 X208.208 Y163.213 E2.67303
G1 X206.732 Y166.048 E2.79451
G1 X205.014 Y168.744 E2.916
G1 X203.068 Y171.28 E3.03748
G1 X200.909 Y173.637 E3.15897
G1 X198.552 Y175.796 E3.28046
G1 X196.016 Y177.742 E3.40194
G1 X193.32 Y179.46 E3.52343
G1 X190.485 Y180.935 E3.64491
G1 X187.532 Y182.159 E3.7664
G1 X184.483 Y183.12 E3.88788
G1 X181.363 Y183.812 E4.00937
G1 X178.193 Y184.229 E4.13086
G1 X175 Y184.368 E4.25234
G1 X171.807 Y184.229 E4.37383
G1 X168.637 Y183.812 E4.49531
G1 X165.517 Y183.12 E4.6168
G1 X162.468 Y182.159 E4.73829
G1 X159.515 Y180.935 E4.85977
G1 X156.68 Y179.46 E4.98126
G1 X153.984 Y177.742 E5.10275
G1 X151.448 Y175.796 E5.22423
G1 X149.091 Y173.637 E5.34572
G1 X146.932 Y171.28 E5.4672
G1 X144.986 Y168.744 E5.58869
G1 X143.268 Y166.048 E5.71017
G1 X141.792 Y163.213 E5.83166
G1 X140.569 Y160.26 E5.95315
G1 X139.608 Y157.211 E6.07463
G1 X138.916 Y154.091 E6.19612
G1 X138.499 Y150.921 E6.3176
G1 X138.36 Y147.728 E6.43909
G1 X138.499 Y144.535 E6.56058
G1 X138.916 Y141.365 E6.68206
G1 X139.608 Y138.245 E6.80355
G1 X140.569 Y135.196 E6.92503
G1 X141.792 Y132.243 E7.04652
G1 X143.264 Y129.416 E7.16767
G1 X144.986 Y126.712 E7.28949
G1 X146.932 Y124.176 E7.41098
G1 X149.091 Y121.819 E7.53246
G1 X151.448 Y119.66 E7.65395
G1 X153.984 Y117.714 E7.77544
G1 X156.68 Y115.996 E7.89692
G1 X159.515 Y114.52 E8.01841
G1 X162.468 Y113.297 E8.13989
M73 C17
G1 X165.517 Y112.336 E8.26138
G1 X168.637 Y111.644 E8.38287
G1 X171.807 Y111.227 E8.50435
G1 X175 Y111.088 E8.62584
G1 X178.116 Y111.224 E8.74438
G1 X211.058 Y152.707 F12000
G1 F2940
G1 X211.058 Y144.325 E9.06295
G1 X210.678 Y141.437 E9.17366
G1 X210.551 Y140.861 E9.19608
G1 X210.551 Y154.595 E9.71805
G1 X210.043 Y156.886 E9.80723
G1 X210.043 Y138.57 E10.50333
G1 X209.994 Y138.351 E10.51186
G1 X209.535 Y136.894 E10.56991
G1 X209.535 Y158.561 E11.39339
G1 X209.027 Y160.159 E11.45712
G1 X209.027 Y135.296 E12.40207
G1 X208.519 Y134.07 E12.45251
G1 X208.519 Y161.386 E13.49066
G1 X208.011 Y162.612 E13.5411
G1 X208.011 Y132.844 E14.67245
G1 X207.834 Y132.417 E14.69002
G1 X207.503 Y131.781 E14.71726
G1 X207.503 Y163.675 E15.9294
G1 X206.996 Y164.65 E15.9712
G1 X206.996 Y130.806 E17.2575
G1 X206.488 Y129.83 E17.2993
G1 X206.488 Y165.626 E18.65976
G1 X206.375 Y165.842 E18.66904
G1 X205.98 Y166.463 E18.69699
G1 X205.98 Y128.993 E20.12105
G1 X205.472 Y128.196 E20.15698
G1 X205.472 Y167.26 E21.64164
G1 X204.964 Y168.057 E21.67756
G1 X204.964 Y127.399 E23.22282
G1 X204.677 Y126.948 E23.24314
G1 X204.456 Y126.661 E23.25691
G1 X204.456 Y168.795 E24.8583
G1 X203.948 Y169.457 E24.89001
G1 X203.948 Y125.999 E26.5417
G1 X203.44 Y125.337 E26.57341
G1 X203.44 Y170.119 E28.27542
G1 X202.933 Y170.781 E28.30712
G1 X202.933 Y124.675 E30.05944
G1 X202.753 Y124.441 E30.07067
G1 X202.425 Y124.083 E30.08912
G1 X202.425 Y171.373 E31.88647
G1 X201.917 Y171.928 E31.91504
G1 X201.917 Y123.528 E33.75451
G1 X201.409 Y122.974 E33.78308
G1 X201.409 Y172.482 E35.66468
G1 X200.901 Y173.036 E35.69325
G1 X200.901 Y122.42 E37.61698
G1 X200.618 Y122.11 E37.63294
G1 X200.393 Y121.905 E37.6445
G1 X200.393 Y173.551 E39.60737
G1 X199.885 Y174.016 E39.63355
G1 X199.885 Y121.44 E41.6318
G1 X199.378 Y120.974 E41.65798
G1 X199.378 Y174.482 E43.69161
G1 X198.87 Y174.947 E43.71779
G1 X198.87 Y120.509 E45.78679
G1 X198.362 Y120.043 E45.81297
G1 X198.362 Y175.412 E47.91734
G1 X197.854 Y175.813 E47.94193
G1 X197.854 Y119.643 E50.07677
G1 X197.346 Y119.253 E50.1011
G1 X197.346 Y176.203 E52.26557
G1 X196.838 Y176.593 E52.28989
G1 X196.838 Y118.863 E54.48398
G1 X196.33 Y118.474 E54.50831
G1 X196.33 Y176.982 E56.73201
G1 X195.823 Y177.372 E56.75634
G1 X195.823 Y118.084 E59.00967
G1 X195.315 Y117.755 E59.03267
G1 X195.315 Y177.701 E61.31102
G1 X194.807 Y178.025 E61.3339
M73 P1 R96
G1 X194.807 Y117.431 E63.63684
G1 X194.299 Y117.108 E63.65973
G1 X194.299 Y178.348 E65.98726
G1 X193.791 Y178.672 E66.01014
G1 X193.791 Y116.784 E68.36227
G1 X193.283 Y116.461 E68.38515
G1 X193.283 Y178.995 E70.76187
G1 X192.775 Y179.279 E70.78399
G1 X192.775 Y116.177 E73.1823
G1 X192.267 Y115.912 E73.20406
G1 X192.267 Y179.544 E75.62246
G1 X191.76 Y179.808 E75.64422
G1 X191.76 Y115.648 E78.08272
G1 X191.252 Y115.383 E78.10448
M73 P1 R95
G1 X191.252 Y180.073 E80.56308
G1 X190.744 Y180.337 E80.58484
G1 X190.744 Y115.119 E83.06354
G1 X190.236 Y114.863 E83.08516
G1 X190.236 Y180.593 E85.58334
G1 X189.728 Y180.804 E85.60423
G1 X189.728 Y114.652 E88.11841
G1 X189.22 Y114.442 E88.1393
G1 X189.22 Y181.014 E90.66947
G1 X188.712 Y181.224 E90.69036
G1 X188.712 Y114.232 E93.23651
G1 X188.205 Y114.021 E93.25741
G1 X188.205 Y181.435 E95.81955
G1 X187.697 Y181.645 E95.84044
G1 X187.697 Y113.811 E98.41858
G1 X187.189 Y113.62 E98.43919
G1 X187.189 Y181.836 E101.0318
G1 X186.681 Y181.996 E101.05204
G1 X186.681 Y113.46 E103.65681
G1 X186.173 Y113.3 E103.67705
G1 X186.173 Y182.156 E106.294
G1 X185.665 Y182.316 E106.31424
G1 X185.665 Y113.14 E108.94336
G1 X185.157 Y112.98 E108.9636
G1 X185.157 Y182.476 E111.6049
G1 X184.649 Y182.636 E111.62514
G1 X184.649 Y112.82 E114.2786
G1 X184.142 Y112.682 E114.2986
G1 X184.142 Y182.774 E116.96257
G1 X183.634 Y182.887 E116.98234
M73 C16
G1 X183.634 Y112.569 E119.65486
G1 X183.126 Y112.456 E119.67463
G1 X183.126 Y182.999 E122.35572
G1 X182.618 Y183.112 E122.37549
G1 X182.618 Y112.344 E125.06513
G1 X182.11 Y112.231 E125.0849
G1 X182.11 Y183.225 E127.78309
G1 X181.602 Y183.337 E127.80287
G1 X181.602 Y112.119 E130.50962
G1 X181.291 Y112.05 E130.52174
G1 X181.094 Y112.024 E130.52928
G1 X181.094 Y183.432 E133.24324
G1 X180.587 Y183.499 E133.26271
G1 X180.587 Y111.957 E135.98176
G1 X180.079 Y111.89 E136.00123
G1 X180.079 Y183.566 E138.72537
G1 X179.571 Y183.633 E138.74484
G1 X179.571 Y111.823 E141.47405
G1 X179.063 Y111.756 E141.49352
G1 X179.063 Y183.7 E144.22782
G1 X178.555 Y183.766 E144.24729
G1 X178.555 Y111.689 E146.98667
G1 X178.047 Y111.632 E147.00609
G1 X178.047 Y183.824 E149.74982
G1 X177.539 Y183.846 E149.76914
G1 X177.539 Y111.61 E152.51455
G1 X177.031 Y111.588 E152.53387
G1 X177.031 Y183.868 E155.28096
G1 X176.524 Y183.89 E155.30028
G1 X176.524 Y111.566 E158.04907
G1 X176.016 Y111.544 E158.06839
G1 X176.016 Y183.912 E160.81885
G1 X175.508 Y183.934 E160.83817
G1 X175.508 Y111.521 E163.59033
G1 X175 Y111.499 E163.60965
G1 X175 Y183.957 E166.36348
G1 X174.492 Y183.934 E166.3828
M73 P2 R95
G1 X174.492 Y111.521 E169.13496
G1 X173.984 Y111.544 E169.15428
G1 X173.984 Y183.912 E171.90474
G1 X173.476 Y183.89 E171.92406
G1 X173.476 Y111.566 E174.67285
G1 X172.969 Y111.588 E174.69217
G1 X172.969 Y183.868 E177.43926
G1 X172.461 Y183.846 E177.45858
G1 X172.461 Y111.61 E180.20399
G1 X171.953 Y111.632 E180.22331
G1 X171.953 Y183.824 E182.96704
G1 X171.445 Y183.766 E182.98646
G1 X171.445 Y111.689 E185.72584
G1 X170.937 Y111.756 E185.74531
G1 X170.937 Y183.7 E188.47961
G1 X170.429 Y183.633 E188.49908
M73 P2 R94
G1 X170.429 Y111.823 E191.22829
G1 X169.921 Y111.89 E191.24776
G1 X169.921 Y183.566 E193.9719
G1 X169.413 Y183.499 E193.99137
G1 X169.413 Y111.957 E196.71042
G1 X168.906 Y112.024 E196.72989
G1 X168.906 Y183.432 E199.44385
G1 X168.398 Y183.337 E199.46349
G1 X168.398 Y112.119 E202.17025
G1 X167.89 Y112.231 E202.19002
G1 X167.89 Y183.225 E204.88822
G1 X167.382 Y183.112 E204.90799
G1 X167.382 Y112.344 E207.59763
G1 X166.874 Y112.456 E207.6174
G1 X166.874 Y182.999 E210.29848
G1 X166.366 Y182.887 E210.31825
G1 X166.366 Y112.569 E212.99077
G1 X165.858 Y112.682 E213.01054
G1 X165.858 Y182.774 E215.67451
G1 X165.351 Y182.636 E215.69451
G1 X165.351 Y112.82 E218.34798
G1 X164.843 Y112.98 E218.36821
G1 X164.843 Y182.476 E221.00951
G1 X164.335 Y182.316 E221.02975
G1 X164.335 Y113.14 E223.65887
G1 X163.827 Y113.3 E223.67911
G1 X163.827 Y182.156 E226.29606
G1 X163.319 Y181.996 E226.3163
M73 C15
G1 X163.319 Y113.46 E228.92107
G1 X162.811 Y113.62 E228.94131
G1 X162.811 Y181.836 E231.53392
G1 X162.303 Y181.645 E231.55453
G1 X162.303 Y113.811 E234.13267
G1 X161.795 Y114.021 E234.15356
G1 X161.795 Y181.435 E236.71571
G1 X161.288 Y181.224 E236.7366
G1 X161.288 Y114.232 E239.28275
G1 X160.78 Y114.442 E239.30365
G1 X160.78 Y181.014 E241.83381
G1 X160.272 Y180.804 E241.8547
G1 X160.272 Y114.652 E244.36888
G1 X159.764 Y114.863 E244.38977
G1 X159.764 Y180.593 E246.88795
G1 X159.256 Y180.337 E246.90958
G1 X159.256 Y115.119 E249.38827
G1 X158.748 Y115.383 E249.41003
G1 X158.748 Y180.073 E251.86863
G1 X158.24 Y179.808 E251.89039
G1 X158.24 Y115.648 E254.32889
G1 X157.733 Y115.912 E254.35065
G1 X157.733 Y179.544 E256.76905
G1 X157.225 Y179.279 E256.79082
G1 X157.225 Y116.177 E259.18912
G1 X156.717 Y116.461 E259.21124
G1 X156.717 Y178.995 E261.58796
G1 X156.209 Y178.672 E261.61084
G1 X156.209 Y116.784 E263.96297
G1 X155.701 Y117.108 E263.98585
G1 X155.701 Y178.348 E266.31338
G1 X155.193 Y178.025 E266.33627
G1 X155.193 Y117.431 E268.63921
G1 X154.685 Y117.755 E268.66209
G1 X154.685 Y177.701 E270.94044
G1 X154.177 Y177.372 E270.96344
G1 X154.177 Y118.084 E273.21677
G1 X153.67 Y118.474 E273.24109
M73 P3 R94
G1 X153.67 Y176.982 E275.4648
G1 X153.162 Y176.593 E275.48913
G1 X153.162 Y118.863 E277.68321
G1 X152.654 Y119.253 E277.70754
G1 X152.654 Y176.203 E279.87201
G1 X152.146 Y175.813 E279.89634
G1 X152.146 Y119.643 E282.03117
G1 X151.638 Y120.043 E282.05576
G1 X151.638 Y175.412 E284.16014
G1 X151.13 Y174.947 E284.18632
G1 X151.13 Y120.509 E286.25532
G1 X150.622 Y120.974 E286.2815
G1 X150.622 Y174.482 E288.31512
G1 X150.115 Y174.016 E288.3413
G1 X150.115 Y121.44 E290.33955
G1 X149.607 Y121.905 E290.36573
G1 X149.607 Y173.551 E292.32861
G1 X149.382 Y173.345 E292.34017
G1 X149.099 Y173.036 E292.35613
G1 X149.099 Y122.42 E294.27986
G1 X148.591 Y122.974 E294.30843
