; generated by PrusaSlicer 2.3.3+win64 on 2021-12-31 at 08:29:19 UTC


;
;

;
;
; 

; external perimeters extrusion width = 0.60mm
; perimeters extrusion width = 0.60mm
; infill extrusion width = 0.60mm
; solid infill extrusion width = 0.60mm
; top infill extrusion width = 0.60mm
; support material extrusion width = 0.50mm

M73 P0 R106
M107
;TYPE:Custom
M190 S65
M109 S210

G28 ; home all axes
G92 E0
G1 Z5 F5000 ; lift nozzle

M117 Wiping 0%...

G1 X2 Y165 F6000
G1 Z0.3 F450
G1 X2 Y15 E16.6 F1500
G92 E0
G1 E-0.5 F2400
G92 E-0.5
G21 ; set units to millimeters
G90 ; use absolute coordinates
M82 ; use absolute distances for extrusion
G92 E0
; Filament gcode
M900 K0.045 ; set K-factor
M207 F1800 S1.0 Z0.5 ; set retract
M208 F1800 S0.0 ; set recover
;LAYER_CHANGE
;Z:0.2
;HEIGHT:0.2
G1 Z0.200 F12000.000
M117 Layer 0
G10 ; retract
G92 E0
G1 Z0.700
G1 X135.946 Y112.770
G1 Z0.200
G11 ; unretract
G92 E0
;TYPE:Skirt
;WIDTH:0.6
G1 F2940.000
G1 X139.316 Y108.788 E0.24166
G1 X142.851 Y105.298 E0.47174
G1 X146.703 Y102.104 E0.70352
G1 X150.807 Y99.263 E0.93473
G1 X155.136 Y96.791 E1.16565
G1 X159.874 Y94.621 E1.40703
G1 X164.353 Y93.013 E1.62749
G1 X169.398 Y91.693 E1.86903
G1 X174.041 Y90.887 E2.08735
G1 X178.740 Y90.474 E2.30583
G1 X183.725 Y90.451 E2.53674
G1 X188.930 Y90.885 E2.77868
G1 X193.847 Y91.744 E3.00989
G1 X198.677 Y93.027 E3.24139
G1 X203.573 Y94.810 E3.48276
G1 X208.098 Y96.924 E3.71412
G1 X212.188 Y99.267 E3.93244
G1 X216.079 Y101.954 E4.15148
G1 X220.101 Y105.267 E4.39286
G1 X223.647 Y108.763 E4.62351
G1 X226.889 Y112.566 E4.85500
G1 X229.789 Y116.636 E5.08649
G1 X232.316 Y120.927 E5.31714
G1 X234.554 Y125.646 E5.55908
G1 X236.208 Y130.063 E5.77756
G1 X237.486 Y134.603 E5.99604
G1 X238.433 Y139.497 E6.22695
G1 X238.971 Y144.687 E6.46861
G1 X239.042 Y149.610 E6.69671
G1 X238.678 Y154.644 E6.93047
G1 X237.889 Y159.554 E7.16083
G1 X236.677 Y164.383 E7.39147
G1 X235.138 Y168.861 E7.61080
G1 X232.901 Y173.883 E7.86545
G1 X230.599 Y178.027 E8.08506
G1 X227.733 Y182.270 E8.32221
G1 X224.708 Y186.015 E8.54522
G1 X221.441 Y189.425 E8.76398
G1 X192.474 Y219.014 E10.68203
G1 X191.576 Y219.838 E10.73848
G1 X190.380 Y220.761 E10.80847
G1 X189.237 Y221.484 E10.87111
G1 X188.008 Y222.118 E10.93517
G1 X186.779 Y222.622 E10.99668
G1 X185.477 Y223.028 E11.05989
G1 X184.144 Y223.319 E11.12310
G1 X182.807 Y223.491 E11.18553
G1 X181.384 Y223.545 E11.25149
G1 X180.120 Y223.486 E11.31010
G1 X178.763 Y223.305 E11.37352
G1 X177.466 Y223.016 E11.43504
G1 X176.043 Y222.559 E11.50429
G1 X174.922 Y222.092 E11.56053
G1 X173.605 Y221.397 E11.62949
G1 X172.479 Y220.668 E11.69167
G1 X170.874 Y219.357 E11.78765
G1 X138.459 Y186.211 E13.93517
G1 X135.138 Y182.117 E14.17937
G1 X132.377 Y178.010 E14.40860
G1 X129.966 Y173.653 E14.63925
G1 X127.939 Y169.105 E14.86990
G1 X126.316 Y164.404 E15.10026
G1 X125.101 Y159.569 E15.33119
G1 X124.312 Y154.665 E15.56127
G1 X123.947 Y149.693 E15.79220
G1 X124.005 Y144.947 E16.01209
G1 X124.510 Y139.766 E16.25319
G1 X125.435 Y134.861 E16.48440
G1 X126.783 Y130.049 E16.71589
G1 X128.632 Y125.177 E16.95727
G1 X130.808 Y120.681 E17.18863
G1 X133.206 Y116.624 E17.40694
G1 X135.894 Y112.843 E17.62182
G1 X136.349 Y113.164 F12000.000
G1 F2940.000
G1 X139.725 Y109.166 E17.86421
G1 X143.230 Y105.706 E18.09236
G1 X147.039 Y102.548 E18.32158
G1 X151.103 Y99.734 E18.55054
G1 X155.390 Y97.286 E18.77922
G1 X160.063 Y95.145 E19.01732
G1 X164.513 Y93.547 E19.23630
G1 X169.494 Y92.242 E19.47482
G1 X174.114 Y91.439 E19.69203
G1 X178.788 Y91.029 E19.90939
G1 X183.724 Y91.008 E20.13805
G1 X188.858 Y91.437 E20.37670
G1 X193.727 Y92.288 E20.60565
G1 X198.505 Y93.557 E20.83460
G1 X203.341 Y95.316 E21.07298
G1 X207.822 Y97.408 E21.30206
G1 X211.891 Y99.739 E21.51927
G1 X215.761 Y102.412 E21.73716
G1 X219.733 Y105.685 E21.97554
G1 X223.244 Y109.147 E22.20395
G1 X226.450 Y112.909 E22.43291
G1 X229.318 Y116.934 E22.66186
G1 X231.824 Y121.188 E22.89054
G1 X234.032 Y125.842 E23.12919
G1 X235.679 Y130.237 E23.34654
G1 X236.949 Y134.754 E23.56390
G1 X237.885 Y139.601 E23.79257
G1 X238.415 Y144.719 E24.03094
G1 X238.485 Y149.603 E24.25720
G1 X238.124 Y154.585 E24.48857
G1 X237.343 Y159.442 E24.71645
G1 X236.142 Y164.231 E24.94513
G1 X234.611 Y168.679 E25.16303
G1 X232.413 Y173.613 E25.41325
G1 X230.127 Y177.731 E25.63141
G1 X227.297 Y181.924 E25.86575
G1 X224.289 Y185.647 E26.08743
G1 X221.039 Y189.039 E26.30505
G1 X192.077 Y218.624 E28.22283
G1 X191.213 Y219.415 E28.27705
G1 X190.057 Y220.308 E28.34472
G1 X188.955 Y221.004 E28.40512
G1 X187.775 Y221.612 E28.46660
G1 X186.590 Y222.098 E28.52592
G1 X185.334 Y222.490 E28.58686
G1 X184.055 Y222.769 E28.64753
G1 X182.760 Y222.936 E28.70800
G1 X181.395 Y222.988 E28.77129
G1 X180.175 Y222.931 E28.82784
G1 X178.867 Y222.758 E28.88897
G1 X177.611 Y222.479 E28.94855
G1 X176.246 Y222.040 E29.01496
G1 X175.164 Y221.590 E29.06925
G1 X173.901 Y220.925 E29.13539
G1 X172.809 Y220.219 E29.19560
G1 X171.237 Y218.934 E29.28966
G1 X138.861 Y185.825 E31.43469
G1 X135.584 Y181.782 E31.67576
G1 X132.849 Y177.714 E31.90282
G1 X130.462 Y173.400 E32.13124
G1 X128.458 Y168.900 E32.35938
G1 X126.850 Y164.245 E32.58753
G1 X125.647 Y159.457 E32.81621
G1 X124.864 Y154.594 E33.04436
G1 X124.504 Y149.676 E33.27277
M73 P0 R105
G1 X124.562 Y144.955 E33.49147
G1 X125.061 Y139.845 E33.72931
G1 X125.977 Y134.988 E33.95827
G1 X127.313 Y130.223 E34.18749
G1 X129.138 Y125.411 E34.42586
G1 X131.170 Y121.175 E34.64349
G1 X133.548 Y117.130 E34.86085
G1 X136.297 Y113.238 E35.08158
G10 ; retract
G92 E0
G1 Z0.700 F12000.000
G1 X217.146 Y155.485
G1 Z0.200
G11 ; unretract
G92 E0
;TYPE:Support material
;WIDTH:0.5
G1 F2940.000
G1 X217.146 Y141.414 E0.53479
G1 X216.519 Y138.589 E0.64476
G1 X216.231 Y137.676 E0.68115
G1 X216.231 Y158.273 E1.46395
G1 X215.568 Y160.377 E1.54779
G1 X215.317 Y160.982 E1.57270
G1 X215.317 Y134.967 E2.56145
G1 X214.403 Y132.760 E2.65224
G1 X214.403 Y163.189 E3.80875
G1 X213.489 Y164.968 E3.88475
G1 X213.489 Y130.981 E5.17646
G1 X212.897 Y129.844 E5.22520
G1 X212.575 Y129.338 E5.24797
G1 X212.575 Y166.611 E6.66456
G1 X211.661 Y168.046 E6.72923
G1 X211.661 Y127.903 E8.25489
G1 X211.197 Y127.176 E8.28768
G1 X210.747 Y126.588 E8.31581
G1 X210.747 Y169.361 E9.94142
G1 X209.832 Y170.552 E9.99849
G1 X209.832 Y125.397 E11.71466
G1 X209.271 Y124.666 E11.74968
G1 X208.918 Y124.281 E11.76955
G1 X208.918 Y171.668 E13.57059
G1 X208.004 Y172.666 E13.62202
G1 X208.004 Y123.283 E15.49888
G1 X207.090 Y122.293 E15.55009
G1 X207.090 Y173.656 E17.50221
G1 X206.176 Y174.494 E17.54933
G1 X206.176 Y121.455 E19.56512
G1 X205.262 Y120.618 E19.61224
G1 X205.262 Y175.331 E21.69170
G1 X204.802 Y175.752 E21.71540
G1 X204.347 Y176.101 E21.73717
G1 X204.347 Y119.848 E23.87515
G1 X203.433 Y119.146 E23.91895
G1 X203.433 Y176.803 E26.11025
G1 X202.519 Y177.504 E26.15405
G1 X202.519 Y118.445 E28.39867
G1 X202.292 Y118.271 E28.40954
G1 X201.605 Y117.833 E28.44051
G1 X201.605 Y178.116 E30.73165
G1 X200.691 Y178.698 E30.77284
G1 X200.691 Y117.251 E33.10825
G1 X199.777 Y116.668 E33.14945
G1 X199.777 Y179.281 E35.52912
G1 X199.624 Y179.378 E35.53599
G1 X198.862 Y179.774 E35.56863
G1 X198.862 Y116.175 E37.98583
G1 X197.948 Y115.699 E38.02500
G1 X197.948 Y180.250 E40.47837
G1 X197.034 Y180.726 E40.51754
G1 X197.034 Y115.223 E43.00709
G1 X196.818 Y115.110 E43.01634
G1 X196.120 Y114.821 E43.04506
G1 X196.120 Y181.128 E45.56514
G1 X195.206 Y181.507 E45.60274
G1 X195.206 Y114.443 E48.15160
G1 X194.292 Y114.064 E48.18920
G1 X194.292 Y181.885 E50.76684
G1 X193.896 Y182.049 E50.78314
G1 X193.377 Y182.213 E50.80378
G1 X193.377 Y113.736 E53.40631
G1 X192.463 Y113.448 E53.44274
G1 X192.463 Y182.501 E56.06717
G1 X191.549 Y182.789 E56.10360
G1 X191.549 Y113.160 E58.74995
G1 X190.879 Y112.949 E58.77667
G1 X190.635 Y112.895 E58.78615
G1 X190.635 Y183.054 E61.45268
G1 X189.721 Y183.257 E61.48826
G1 X189.721 Y112.692 E64.17019
G1 X188.807 Y112.489 E64.20578
G1 X188.807 Y183.460 E66.90311
G1 X187.893 Y183.662 E66.93869
G1 X187.893 Y112.287 E69.65143
M73 P1 R105
G1 X186.978 Y112.157 E69.68652
G1 X186.978 Y183.792 E72.40911
G1 X186.064 Y183.912 E72.44415
G1 X186.064 Y112.037 E75.17588
G1 X185.150 Y111.916 E75.21093
G1 X185.150 Y184.033 E77.95181
G1 X184.654 Y184.098 E77.97083
G1 X184.236 Y184.116 E77.98673
G1 X184.236 Y111.833 E80.73396
G1 X183.322 Y111.793 E80.76874
G1 X183.322 Y184.156 E83.51901
G1 X182.408 Y184.196 E83.55379
G1 X182.408 Y111.753 E86.30709
G1 X181.493 Y111.713 E86.34186
G1 X181.493 Y184.236 E89.09820
G1 X180.579 Y184.196 E89.13298
G1 X180.579 Y111.753 E91.88628
G1 X179.665 Y111.793 E91.92106
G1 X179.665 Y184.156 E94.67132
G1 X178.751 Y184.116 E94.70610
G1 X178.751 Y111.833 E97.45333
G1 X178.333 Y111.851 E97.46923
G1 X177.837 Y111.916 E97.48826
G1 X177.837 Y184.033 E100.22914
G1 X176.923 Y183.912 E100.26418
G1 X176.923 Y112.037 E102.99591
G1 X176.008 Y112.157 E103.03096
G1 X176.008 Y183.792 E105.75354
M73 P1 R104
G1 X175.197 Y183.685 E105.78466
G1 X175.094 Y183.662 E105.78865
G1 X175.094 Y112.287 E108.50138
G1 X174.180 Y112.489 E108.53697
G1 X174.180 Y183.460 E111.23430
G1 X173.266 Y183.257 E111.26989
G1 X173.266 Y112.692 E113.95181
G1 X172.352 Y112.895 E113.98740
G1 X172.352 Y183.054 E116.65392
G1 X172.108 Y183.000 E116.66340
G1 X171.438 Y182.789 E116.69013
G1 X171.438 Y113.160 E119.33647
G1 X170.524 Y113.448 E119.37290
G1 X170.524 Y182.501 E121.99734
G1 X169.609 Y182.213 E122.03377
G1 X169.609 Y113.736 E124.63629
G1 X169.091 Y113.900 E124.65694
G1 X168.695 Y114.064 E124.67323
G1 X168.695 Y181.885 E127.25087
G1 X167.781 Y181.507 E127.28848
G1 X167.781 Y114.443 E129.83734
G1 X166.867 Y114.821 E129.87494
G1 X166.867 Y181.128 E132.39502
G1 X166.169 Y180.839 E132.42374
G1 X165.953 Y180.726 E132.43299
G1 X165.953 Y115.223 E134.92254
G1 X165.039 Y115.699 E134.96171
G1 X165.039 Y180.250 E137.41508
G1 X164.124 Y179.774 E137.45425
G1 X164.124 Y116.175 E139.87145
G1 X163.363 Y116.571 E139.90409
G1 X163.210 Y116.668 E139.91095
G1 X163.210 Y179.281 E142.29063
G1 X162.296 Y178.698 E142.33183
G1 X162.296 Y117.251 E144.66723
G1 X161.382 Y117.833 E144.70843
G1 X161.382 Y178.116 E146.99957
G1 X160.695 Y177.678 E147.03054
G1 X160.468 Y177.504 E147.04141
G1 X160.468 Y118.445 E149.28603
G1 X159.554 Y119.146 E149.32983
G1 X159.554 Y176.803 E151.52113
G1 X158.639 Y176.101 E151.56492
G1 X158.639 Y119.848 E153.70291
G1 X158.185 Y120.197 E153.72468
G1 X157.725 Y120.618 E153.74838
G1 X157.725 Y175.331 E155.82784
G1 X156.811 Y174.494 E155.87496
G1 X156.811 Y121.455 E157.89075
G1 X155.897 Y122.293 E157.93787
G1 X155.897 Y173.656 E159.88998
G1 X154.983 Y172.666 E159.94119
G1 X154.983 Y123.283 E161.81806
G1 X154.069 Y124.281 E161.86949
G1 X154.069 Y171.668 E163.67053
G1 X153.715 Y171.283 E163.69040
G1 X153.154 Y170.552 E163.72542
G1 X153.155 Y125.397 E165.44159
G1 X152.240 Y126.588 E165.49866
G1 X152.240 Y169.361 E167.12427
G1 X151.790 Y168.773 E167.15240
G1 X151.326 Y168.046 E167.18519
G1 X151.326 Y127.903 E168.71085
G1 X150.412 Y129.338 E168.77552
G1 X150.412 Y166.611 E170.19211
G1 X150.090 Y166.105 E170.21488
G1 X149.498 Y164.968 E170.26362
G1 X149.498 Y130.981 E171.55533
G1 X148.584 Y132.760 E171.63133
G1 X148.584 Y163.189 E172.78784
G1 X147.670 Y160.982 E172.87863
G1 X147.670 Y134.967 E173.86738
G1 X147.419 Y135.572 E173.89229
G1 X146.755 Y137.676 E173.97613
G1 X146.755 Y158.273 E174.75893
G1 X146.467 Y157.360 E174.79532
G1 X145.841 Y154.535 E174.90529
G1 X145.841 Y140.464 E175.44008
G10 ; retract
G92 E0
G1 Z0.700 F12000.000
G1 X222.881 Y166.741
G1 Z0.200
G11 ; unretract
G92 E0
;TYPE:Perimeter
;WIDTH:0.6
G1 F1260.000
G1 X222.446 Y166.644 E0.02064
G1 X222.021 Y166.510 E0.04128
G1 X221.636 Y166.351 E0.06058
G1 X221.216 Y166.135 E0.08245
G1 X220.838 Y165.894 E0.10320
G1 X220.485 Y165.623 E0.12384
G1 X220.156 Y165.322 E0.14448
G1 X219.855 Y164.994 E0.16513
G1 X219.584 Y164.640 E0.18577
G1 X219.344 Y164.264 E0.20641
G1 X219.139 Y163.869 E0.22705
G1 X218.968 Y163.457 E0.24769
G1 X218.834 Y163.032 E0.26833
G1 X218.738 Y162.597 E0.28897
G1 X218.679 Y162.155 E0.30961
G1 X218.660 Y161.710 E0.33025
G1 X218.679 Y161.265 E0.35089
G1 X218.738 Y160.823 E0.37154
G1 X218.834 Y160.388 E0.39218
G1 X218.968 Y159.963 E0.41282
G1 X219.127 Y159.578 E0.43212
G1 X219.343 Y159.158 E0.45398
G1 X219.584 Y158.781 E0.47474
G1 X219.855 Y158.427 E0.49538
G1 X220.156 Y158.098 E0.51602
G1 X220.485 Y157.797 E0.53666
G1 X220.838 Y157.526 E0.55730
G1 X221.214 Y157.287 E0.57794
G1 X221.609 Y157.081 E0.59858
G1 X222.021 Y156.910 E0.61922
G1 X222.446 Y156.776 E0.63987
G1 X222.881 Y156.680 E0.66051
G1 X223.323 Y156.622 E0.68115
G1 X223.739 Y156.604 E0.70045
G1 X224.211 Y156.622 E0.72231
G1 X224.655 Y156.680 E0.74307
G1 X225.090 Y156.776 E0.76371
G1 X225.515 Y156.910 E0.78435
G1 X225.927 Y157.081 E0.80499
G1 X226.322 Y157.287 E0.82563
G1 X226.698 Y157.526 E0.84627
G1 X227.051 Y157.797 E0.86691
G1 X227.380 Y158.098 E0.88755
G1 X227.681 Y158.427 E0.90820
G1 X227.952 Y158.781 E0.92884
G1 X228.176 Y159.132 E0.94814
G1 X228.396 Y159.549 E0.97000
G1 X228.568 Y159.963 E0.99076
G1 X228.702 Y160.388 E1.01140
G1 X228.798 Y160.823 E1.03204
G1 X228.856 Y161.265 E1.05268
G1 X228.876 Y161.710 E1.07332
G1 X228.856 Y162.155 E1.09396
G1 X228.798 Y162.597 E1.11460
G1 X228.702 Y163.032 E1.13524
G1 X228.568 Y163.457 E1.15588
G1 X228.408 Y163.842 E1.17518
G1 X228.193 Y164.262 E1.19705
G1 X227.952 Y164.640 E1.21780
G1 X227.681 Y164.994 E1.23844
G1 X227.380 Y165.322 E1.25909
G1 X227.051 Y165.623 E1.27973
G1 X226.698 Y165.894 E1.30037
G1 X226.322 Y166.134 E1.32101
G1 X225.927 Y166.340 E1.34165
G1 X225.515 Y166.510 E1.36229
G1 X225.090 Y166.644 E1.38293
G1 X224.655 Y166.741 E1.40357
G1 X224.213 Y166.799 E1.42421
G1 X223.768 Y166.818 E1.44486
G1 X223.323 Y166.799 E1.46550
G1 X222.970 Y166.752 E1.48197
G1 X222.978 Y166.191 F12000.000
;TYPE:External perimeter
G1 F1260.000
G1 X222.590 Y166.106 E1.50036
G1 X222.212 Y165.986 E1.51874
G1 X221.870 Y165.845 E1.53587
G1 X221.493 Y165.651 E1.55548
G1 X221.158 Y165.438 E1.57390
G1 X220.843 Y165.196 E1.59229
G1 X220.550 Y164.928 E1.61068
G1 X220.282 Y164.635 E1.62907
G1 X220.041 Y164.320 E1.64745
G1 X219.827 Y163.985 E1.66584
G1 X219.644 Y163.633 E1.68423
G1 X219.492 Y163.267 E1.70262
G1 X219.373 Y162.888 E1.72101
G1 X219.287 Y162.500 E1.73939
G1 X219.235 Y162.107 E1.75778
G1 X219.218 Y161.710 E1.77617
G1 X219.235 Y161.314 E1.79456
G1 X219.287 Y160.920 E1.81295
G1 X219.373 Y160.533 E1.83133
G1 X219.492 Y160.154 E1.84972
G1 X219.633 Y159.813 E1.86684
G1 X219.827 Y159.436 E1.88645
G1 X220.041 Y159.100 E1.90488
G1 X220.282 Y158.785 E1.92327
G1 X220.550 Y158.493 E1.94166
G1 X220.843 Y158.225 E1.96004
G1 X221.158 Y157.983 E1.97843
G1 X221.493 Y157.770 E1.99682
G1 X221.845 Y157.586 E2.01521
G1 X222.212 Y157.434 E2.03359
G1 X222.590 Y157.315 E2.05198
G1 X222.978 Y157.229 E2.07037
G1 X223.371 Y157.177 E2.08876
G1 X223.741 Y157.161 E2.10588
G1 X224.164 Y157.177 E2.12549
G1 X224.558 Y157.229 E2.14392
G1 X224.946 Y157.315 E2.16230
G1 X225.324 Y157.434 E2.18069
G1 X225.691 Y157.586 E2.19908
G1 X226.043 Y157.770 E2.21747
G1 X226.378 Y157.983 E2.23586
G1 X226.693 Y158.225 E2.25424
G1 X226.985 Y158.493 E2.27263
G1 X227.254 Y158.785 E2.29102
G1 X227.495 Y159.100 E2.30941
G1 X227.694 Y159.412 E2.32653
G1 X227.892 Y159.786 E2.34614
G1 X228.044 Y160.154 E2.36457
G1 X228.163 Y160.533 E2.38295
G1 X228.249 Y160.920 E2.40134
G1 X228.301 Y161.314 E2.41973
G1 X228.318 Y161.710 E2.43812
G1 X228.301 Y162.107 E2.45650
G1 X228.249 Y162.500 E2.47489
G1 X228.163 Y162.888 E2.49328
G1 X228.044 Y163.267 E2.51167
G1 X227.902 Y163.608 E2.52879
G1 X227.709 Y163.985 E2.54840
G1 X227.495 Y164.320 E2.56683
G1 X227.254 Y164.635 E2.58522
G1 X226.985 Y164.928 E2.60360
G1 X226.693 Y165.196 E2.62199
G1 X226.378 Y165.438 E2.64038
G1 X226.043 Y165.651 E2.65877
G1 X225.691 Y165.834 E2.67715
G1 X225.324 Y165.986 E2.69554
G1 X224.946 Y166.106 E2.71393
G1 X224.558 Y166.191 E2.73232
G1 X224.164 Y166.243 E2.75071
G1 X223.768 Y166.261 E2.76909
G1 X223.371 Y166.243 E2.78748
G1 X223.067 Y166.203 E2.80170
G1 X222.723 Y166.496 F12000.000
G10 ; retract
G92 E0
G1 Z0.700
G1 X207.175 Y117.102
M73 P2 R104
G1 Z0.200
G11 ; unretract
G92 E0
