; generated by PrusaSlicer 2.4.0+win64 on 2022-01-17 at 16:12:18 UTC


;
;

;
;
; 

; external perimeters extrusion width = 0.60mm
; perimeters extrusion width = 0.60mm
; infill extrusion width = 0.60mm
; solid infill extrusion width = 0.60mm
; top infill extrusion width = 0.60mm
; support material extrusion width = 0.50mm

M73 P0 R0
M107
;TYPE:Custom
M190 S20
M109 S60

G28 ; home all axes
G92 E0
G1 Z5 F5000 ; lift nozzle

M117 Wiping 0%...

G1 X2 Y165 F6000
G1 Z0.3 F450
M73 P4 R0
G1 X2 Y15 E16.6 F1500
G92 E0
M73 P5 R0
G1 E-0.5 F2400
G92 E-0.5
G21 ; set units to millimeters
G90 ; use absolute coordinates
M82 ; use absolute distances for extrusion
G92 E0
; Filament gcode
M900 K0.035 ; set K-factor
M207 F1800 S1.0 Z0.5 ; set retract
M208 F1800 S0.0 ; set recover
M107
;LAYER_CHANGE
;Z:0.2
;HEIGHT:0.2
M73 P19 R0
G1 Z.2 F12000
M117 Layer 0
G10 ; retract
G92 E0
G1 Z.7
G1 X157.796 Y134.154
G1 Z.2
G11 ; unretract
G92 E0
;TYPE:Skirt/Brim
;WIDTH:0.6
M73 P22 R0
G1 F2940
G1 X158.38 Y133.477 E.04141
G1 X159.528 Y132.401 E.1143
G1 X161.879 Y130.686 E.24909
G1 X163.216 Y129.934 E.32015
G1 X164.064 Y129.568 E.36295
G1 X166.14 Y128.979 E.46292
G1 X167.707 Y128.796 E.53598
G1 X168.994 Y128.792 E.5956
G1 X170.649 Y128.979 E.67275
G1 X171.55 Y129.183 E.71555
G1 X173.483 Y129.89 E.81086
G1 X174.833 Y130.637 E.88236
M73 P23 R0
G1 X176.727 Y131.986 E.99007
G1 X177.661 Y132.743 E1.04575
G1 X178.527 Y133.604 E1.1023
G1 X179.107 Y134.298 E1.14421
G1 X179.978 Y135.596 E1.2166
G1 X180.514 Y136.639 E1.27095
G1 X180.908 Y137.624 E1.32007
G1 X181.343 Y139.133 E1.39279
G1 X181.525 Y140.156 E1.44097
G1 X181.617 Y141.269 E1.49268
G1 X181.567 Y142.835 E1.56525
G1 X181.166 Y144.923 E1.66372
G1 X180.424 Y147.21 E1.77511
G1 X179.996 Y148.241 E1.82683
M73 P24 R0
G1 X179.187 Y149.684 E1.90346
G1 X178.551 Y150.559 E1.95357
G1 X177.903 Y151.304 E1.9993
G1 X176.77 Y152.35 E2.0707
G1 X174.954 Y153.591 E2.1726
G1 X173.406 Y154.318 E2.25182
G1 X172.37 Y154.66 E2.30239
G1 X170.763 Y154.99 E2.37835
G1 X169.842 Y155.075 E2.4212
G1 X166.373 Y155.03 E2.58192
G1 X164.286 Y154.622 E2.6804
G1 X162.773 Y154.064 E2.75513
G1 X161.782 Y153.561 E2.80659
G1 X160.907 Y153.013 E2.85442
M73 P25 R0
G1 X159.589 Y151.985 E2.93185
G1 X158.14 Y150.435 E3.0301
G1 X157.279 Y149.162 E3.10134
G1 X156.724 Y148.093 E3.15712
G1 X155.631 Y144.95 E3.31122
G1 X155.242 Y143.013 E3.40274
G1 X155.172 Y142.064 E3.44684
G1 X155.229 Y140.467 E3.52084
G1 X155.408 Y139.308 E3.57519
G1 X155.663 Y138.298 E3.62345
G1 X156.203 Y136.804 E3.69703
G1 X156.658 Y135.868 E3.7452
G1 X157.746 Y134.229 E3.83635
G1 X158.209 Y134.536 F12000
M73 P26 R0
G1 F2940
G1 X158.791 Y133.853 E3.87792
G1 X159.877 Y132.836 E3.94685
G1 X162.188 Y131.15 E4.07936
G1 X163.452 Y130.439 E4.14655
G1 X164.26 Y130.089 E4.18731
G1 X166.247 Y129.526 E4.28301
G1 X167.729 Y129.353 E4.35211
G1 X168.975 Y129.349 E4.40983
G1 X170.542 Y129.526 E4.48288
G1 X171.4 Y129.72 E4.52364
G1 X172.449 Y130.058 E4.57465
G1 X173.812 Y130.68 E4.64406
G1 X174.713 Y131.224 E4.69284
G1 X176.672 Y132.643 E4.80486
G1 X178.117 Y133.982 E4.89611
M73 P27 R0
G1 X178.67 Y134.643 E4.93606
G1 X179.493 Y135.87 E5.0045
G1 X180.009 Y136.874 E5.05679
G1 X180.385 Y137.816 E5.10374
G1 X180.798 Y139.248 E5.17281
G1 X180.972 Y140.224 E5.2187
G1 X181.061 Y141.294 E5.26846
G1 X181.013 Y142.774 E5.33706
G1 X180.629 Y144.774 E5.43136
G1 X179.902 Y147.017 E5.54058
G1 X179.49 Y148.009 E5.59035
G1 X178.725 Y149.374 E5.66282
G1 X178.112 Y150.216 E5.71108
G1 X177.495 Y150.925 E5.75459
M73 P28 R0
G1 X176.424 Y151.913 E5.8221
G1 X174.676 Y153.108 E5.92022
G1 X173.212 Y153.796 E5.99512
G1 X172.215 Y154.125 E6.04374
G1 X170.695 Y154.437 E6.11562
G1 X169.818 Y154.519 E6.15643
G1 X166.435 Y154.477 E6.31315
G1 X164.437 Y154.086 E6.40745
G1 X163.006 Y153.558 E6.47811
G1 X162.053 Y153.074 E6.52763
G1 X161.216 Y152.549 E6.57336
G1 X159.964 Y151.573 E6.64694
G1 X158.577 Y150.089 E6.741
G1 X157.762 Y148.885 E6.80836
M73 P29 R0
G1 X157.229 Y147.857 E6.86199
G1 X156.168 Y144.8 E7.0119
G1 X155.795 Y142.945 E7.09954
G1 X155.729 Y142.039 E7.14159
G1 X155.782 Y140.53 E7.21153
G1 X156.199 Y138.45 E7.30981
G1 X156.712 Y137.03 E7.37974
G1 X157.145 Y136.139 E7.42563
G1 X158.159 Y134.611 E7.51058
G1 X158.621 Y134.918 F12000
G1 F2940
G1 X159.202 Y134.229 E7.55231
G1 X160.226 Y133.27 E7.61728
G1 X162.497 Y131.613 E7.7475
G1 X163.688 Y130.943 E7.81083
M73 P30 R0
G1 X164.455 Y130.611 E7.84955
G1 X166.354 Y130.072 E7.94098
G1 X167.751 Y129.91 E8.00612
G1 X168.956 Y129.906 E8.06194
G1 X170.435 Y130.072 E8.13089
G1 X171.251 Y130.256 E8.16961
G1 X172.257 Y130.581 E8.21859
G1 X173.542 Y131.168 E8.28402
G1 X174.408 Y131.69 E8.33087
G1 X176.326 Y133.08 E8.44061
G1 X177.707 Y134.359 E8.52778
G1 X178.233 Y134.989 E8.56578
G1 X179.008 Y136.145 E8.63026
G1 X179.862 Y138.007 E8.72518
G1 X180.253 Y139.364 E8.79059
M73 P31 R0
G1 X180.419 Y140.291 E8.8342
G1 X180.504 Y141.319 E8.882
G1 X180.459 Y142.714 E8.94664
G1 X180.092 Y144.625 E9.03676
G1 X179.379 Y146.823 E9.14382
G1 X178.984 Y147.777 E9.19163
G1 X178.262 Y149.063 E9.25995
G1 X177.673 Y149.873 E9.30635
G1 X177.087 Y150.545 E9.34764
G1 X176.078 Y151.477 E9.41126
G1 X174.397 Y152.626 E9.5056
G1 X173.018 Y153.274 E9.57618
G1 X172.061 Y153.59 E9.62285
G1 X170.627 Y153.884 E9.69066
G1 X169.794 Y153.962 E9.72943
M73 P32 R0
G1 X166.497 Y153.923 E9.88214
G1 X164.588 Y153.55 E9.97226
G1 X163.239 Y153.052 E10.03886
G1 X162.323 Y152.587 E10.08644
G1 X161.526 Y152.086 E10.13005
G1 X160.338 Y151.16 E10.19979
G1 X159.013 Y149.743 E10.28966
G1 X158.246 Y148.608 E10.35314
G1 X157.734 Y147.621 E10.40463
G1 X156.704 Y144.649 E10.55034
G1 X156.348 Y142.876 E10.63411
G1 X156.285 Y142.015 E10.67411
G1 X156.336 Y140.593 E10.73999
M73 P33 R0
G1 X156.735 Y138.602 E10.83406
G1 X157.221 Y137.257 E10.90032
G1 X157.632 Y136.41 E10.94393
G1 X158.572 Y134.993 E11.02269
G1 X159.034 Y135.3 F12000
G1 F2940
G1 X159.11 Y135.185 E11.02906
G1 X159.613 Y134.605 E11.06461
G1 X160.574 Y133.705 E11.12563
G1 X162.806 Y132.077 E11.25357
G1 X163.925 Y131.448 E11.31303
G1 X164.651 Y131.133 E11.34971
G1 X166.461 Y130.619 E11.43687
G1 X167.773 Y130.466 E11.49805
G1 X168.937 Y130.463 E11.55196
G1 X170.328 Y130.619 E11.61682
G1 X171.101 Y130.793 E11.65351
M73 P34 R0
G1 X172.066 Y131.104 E11.70044
G1 X173.272 Y131.655 E11.7619
G1 X174.102 Y132.156 E11.80682
G1 X175.981 Y133.517 E11.91427
G1 X177.297 Y134.736 E11.99738
G1 X177.796 Y135.334 E12.03342
G1 X178.524 Y136.419 E12.09395
G1 X179.339 Y138.199 E12.18465
G1 X179.708 Y139.48 E12.2464
G1 X179.866 Y140.358 E12.28773
G1 X179.948 Y141.345 E12.33358
G1 X179.905 Y142.654 E12.39425
G1 X179.555 Y144.476 E12.48019
G1 X178.857 Y146.63 E12.58508
G1 X178.477 Y147.544 E12.63094
G1 X177.8 Y148.753 E12.69511
M73 P35 R0
G1 X177.234 Y149.53 E12.73965
G1 X176.68 Y150.166 E12.77872
G1 X175.732 Y151.04 E12.83845
G1 X174.118 Y152.144 E12.929
G1 X172.824 Y152.752 E12.99527
G1 X171.907 Y153.055 E13.04
G1 X170.559 Y153.331 E13.10373
G1 X169.769 Y153.406 E13.14046
G1 X166.559 Y153.369 E13.28916
G1 X164.738 Y153.013 E13.3751
G1 X163.472 Y152.546 E13.43764
G1 X162.593 Y152.1 E13.48328
G1 X161.835 Y151.623 E13.52478
G1 X160.713 Y150.748 E13.59068
G1 X159.45 Y149.397 E13.67635
G1 X158.729 Y148.331 E13.73595
M73 P36 R0
G1 X158.239 Y147.386 E13.78529
G1 X157.24 Y144.498 E13.92681
G1 X156.901 Y142.807 E14.00671
G1 X156.842 Y141.99 E14.04465
G1 X156.889 Y140.656 E14.10648
G1 X157.271 Y138.754 E14.19633
G1 X157.73 Y137.483 E14.25893
G1 X158.119 Y136.68 E14.30026
G1 X158.985 Y135.375 E14.37282
G1 X159.447 Y135.682 F12000
G1 F2940
G1 X159.549 Y135.529 E14.38131
G1 X160.923 Y134.139 E14.47187
G1 X163.115 Y132.54 E14.59753
G1 X164.847 Y131.654 E14.68764
M73 P37 R0
G1 X166.568 Y131.166 E14.77053
G1 X167.795 Y131.023 E14.82775
G1 X168.918 Y131.019 E14.87976
G1 X170.222 Y131.166 E14.94053
G1 X170.951 Y131.33 E14.97517
G1 X171.874 Y131.627 E15.02007
G1 X173.003 Y132.142 E15.07755
G1 X173.797 Y132.622 E15.12054
G1 X175.636 Y133.954 E15.22571
G1 X176.887 Y135.114 E15.30474
G1 X178.039 Y136.694 E15.3953
G1 X178.816 Y138.391 E15.48178
G1 X179.163 Y139.596 E15.53987
G1 X179.313 Y140.426 E15.57892
M73 P38 R0
G1 X179.391 Y141.37 E15.62281
G1 X179.351 Y142.594 E15.67952
G1 X179.019 Y144.327 E15.76128
G1 X178.334 Y146.436 E15.86401
G1 X177.971 Y147.312 E15.90791
G1 X177.337 Y148.442 E15.96792
G1 X176.795 Y149.187 E16.01062
G1 X176.272 Y149.786 E16.04746
G1 X175.386 Y150.604 E16.1033
G1 X173.84 Y151.661 E16.19007
G1 X172.629 Y152.23 E16.25202
G1 X171.752 Y152.519 E16.2948
G1 X170.491 Y152.778 E16.35446
G1 X169.745 Y152.849 E16.38914
G1 X166.622 Y152.816 E16.53384
G1 X164.889 Y152.477 E16.6156
G1 X163.705 Y152.04 E16.67408
M73 P39 R0
G1 X162.864 Y151.613 E16.71778
G1 X162.144 Y151.159 E16.75717
G1 X161.088 Y150.336 E16.81922
G1 X159.886 Y149.051 E16.90071
G1 X159.213 Y148.055 E16.95642
G1 X158.744 Y147.15 E17.00362
G1 X157.777 Y144.348 E17.14093
G1 X157.453 Y142.738 E17.21697
G1 X157.398 Y141.966 E17.25285
G1 X157.443 Y140.719 E17.31063
G1 X157.806 Y138.907 E17.39626
G1 X158.239 Y137.71 E17.45521
G1 X158.606 Y136.951 E17.49425
G1 X159.398 Y135.757 E17.56062
G1 X159.86 Y136.064 F12000
M73 P40 R0
G1 F2940
G1 X159.987 Y135.873 E17.57123
G1 X161.272 Y134.573 E17.65589
G1 X163.424 Y133.004 E17.77926
G1 X165.042 Y132.176 E17.86348
G1 X166.675 Y131.712 E17.9421
G1 X167.817 Y131.579 E17.99536
G1 X168.899 Y131.576 E18.04547
G1 X170.802 Y131.866 E18.13462
G1 X171.682 Y132.15 E18.17748
G1 X172.733 Y132.63 E18.23098
G1 X173.492 Y133.088 E18.27205
G1 X175.29 Y134.391 E18.37493
G1 X176.478 Y135.491 E18.44989
G1 X177.216 Y136.431 E18.50527
G1 X177.663 Y137.161 E18.5449
M73 P41 R0
G1 X178.429 Y138.998 E18.63713
G1 X178.786 Y140.703 E18.7178
G1 X178.837 Y141.898 E18.77318
G1 X178.772 Y142.766 E18.81351
G1 X178.405 Y144.433 E18.89259
G1 X177.738 Y146.442 E18.99063
G1 X177.237 Y147.527 E19.04602
G1 X176.764 Y148.297 E19.08786
G1 X176.015 Y149.245 E19.14382
G1 X174.767 Y150.384 E19.22209
G1 X173.081 Y151.428 E19.31394
G1 X172.236 Y151.782 E19.35636
G1 X171.152 Y152.095 E19.40863
G1 X169.49 Y152.303 E19.48621
G1 X166.451 Y152.236 E19.62701
M73 P42 R0
G1 X164.562 Y151.785 E19.71698
G1 X163.748 Y151.447 E19.75781
G1 X162.707 Y150.865 E19.81305
G1 X161.306 Y149.781 E19.89513
G1 X160.038 Y148.315 E19.98489
G1 X159.58 Y147.575 E20.02521
G1 X159.055 Y146.451 E20.08269
G1 X158.256 Y143.993 E20.2024
G1 X157.965 Y142.184 E20.28725
G1 X158.021 Y140.562 E20.36244
G1 X158.351 Y139.029 E20.4351
G1 X159.092 Y137.222 E20.52558
G1 X159.811 Y136.139 E20.58575
M73 P43 R0
G1 X160.273 Y136.446 F12000
G1 F2940
G1 X160.425 Y136.217 E20.59848
G1 X161.621 Y135.008 E20.67724
G1 X163.733 Y133.468 E20.79834
G1 X165.238 Y132.697 E20.87666
G1 X166.782 Y132.259 E20.951
G1 X167.839 Y132.136 E21.0003
G1 X168.88 Y132.133 E21.04851
G1 X170.652 Y132.403 E21.13154
G1 X171.491 Y132.673 E21.17236
G1 X172.463 Y133.117 E21.22188
G1 X173.186 Y133.554 E21.26102
G1 X174.945 Y134.828 E21.36162
G1 X176.068 Y135.868 E21.43251
G1 X176.752 Y136.739 E21.48382
M73 P44 R0
G1 X177.178 Y137.435 E21.52161
G1 X177.894 Y139.152 E21.60778
G1 X178.233 Y140.77 E21.68436
G1 X178.28 Y141.877 E21.73567
G1 X178.218 Y142.705 E21.77415
G1 X177.875 Y144.261 E21.84793
G1 X177.216 Y146.249 E21.94494
G1 X176.751 Y147.254 E21.99625
G1 X176.301 Y147.986 E22.03605
G1 X175.607 Y148.865 E22.08794
G1 X174.42 Y149.947 E22.16232
G1 X172.846 Y150.923 E22.24812
G1 X172.042 Y151.26 E22.28849
G1 X171.038 Y151.549 E22.33688
G1 X169.466 Y151.746 E22.41029
G1 X166.514 Y151.682 E22.54708
G1 X164.757 Y151.263 E22.63075
M73 P45 R0
G1 X163.981 Y150.941 E22.66964
G1 X163.016 Y150.402 E22.72084
G1 X161.68 Y149.369 E22.79907
G1 X160.501 Y148.005 E22.88261
G1 X160.063 Y147.298 E22.92109
G1 X159.577 Y146.257 E22.9743
G1 X158.792 Y143.842 E23.09193
G1 X158.522 Y142.16 E23.17087
G1 X158.575 Y140.625 E23.242
G1 X158.887 Y139.181 E23.31044
G1 X159.579 Y137.492 E23.39499
G1 X160.224 Y136.521 E23.44897
G10 ; retract
G92 E0
G1 Z.7 F12000
M73 P46 R0
G1 X169.225 Y144.869
G1 Z.2
G11 ; unretract
G92 E0
;TYPE:External perimeter
G1 F1260
G1 X168.395 Y144.803 E.03858
G1 X168.096 Y144.814 E.05243
G1 X167.678 Y144.864 E.07195
G1 X167.45 Y144.864 E.08249
G1 X167.22 Y144.827 E.09329
G1 X166.989 Y144.751 E.10453
G1 X166.601 Y144.521 E.12543
M73 P47 R0
G1 X166.262 Y144.223 E.14633
G1 X166.119 Y144.027 E.15756
G1 X166.013 Y143.82 E.16837
G1 X165.943 Y143.603 E.1789
G1 X165.86 Y143.19 E.19843
G1 X165.779 Y142.902 E.21227
G1 X165.676 Y142.622 E.22612
G1 X165.499 Y142.239 E.24565
G1 X165.429 Y142.023 E.25618
G1 X165.393 Y141.792 E.26698
G1 X165.394 Y141.55 E.27822
G1 X165.493 Y141.109 E.29912
G1 X165.674 Y140.69 E.3203
G1 X165.892 Y140.412 E.33665
G1 X166.157 Y140.202 E.3523
G1 X166.53 Y139.993 E.3721
G1 X166.778 Y139.827 E.38595
G1 X167.013 Y139.642 E.3998
G1 X167.323 Y139.356 E.41932
G1 X167.511 Y139.219 E.43013
G1 X167.825 Y139.075 E.44612
G1 X168.183 Y139.009 E.46296
G1 X168.731 Y139.021 E.48836
G1 X168.965 Y139.077 E.49953
G1 X169.187 Y139.168 E.51061
G1 X169.463 Y139.352 E.52598
G1 X169.777 Y139.642 E.54578
G1 X170.011 Y139.827 E.55963
M73 P48 R0
G1 X170.717 Y140.258 E.59793
G1 X170.902 Y140.417 E.60919
G1 X171.11 Y140.682 E.62484
G1 X171.218 Y140.895 E.63589
G1 X171.361 Y141.335 E.6573
G1 X171.402 Y141.676 E.6732
G1 X171.362 Y142.017 E.68912
G1 X171.29 Y142.239 E.69993
G1 X171.114 Y142.622 E.71946
G1 X171.01 Y142.902 E.7333
G1 X170.929 Y143.19 E.74715
G1 X170.846 Y143.609 E.76695
G1 X170.729 Y143.926 E.7826
G1 X170.532 Y144.219 E.79895
G1 X170.192 Y144.518 E.81991
G1 X169.894 Y144.707 E.83626
G1 X169.57 Y144.828 E.85228
G1 X169.314 Y144.859 E.86421
G1 X168.938 Y145.396 F12000
G1 X169.224 Y145.893
G1 F1260
G1 X168.395 Y145.828 E.90272
G1 X167.566 Y145.893 E.94124
G1 X167.172 Y145.862 E.95954
M73 P49 R0
G1 X166.782 Y145.767 E.97811
G1 X166.608 Y145.703 E.98672
G1 X166.246 Y145.516 E1.00558
G1 X166.003 Y145.353 E1.01917
G1 X165.614 Y145.028 E1.04266
G1 X165.353 Y144.724 E1.06119
G1 X165.249 Y144.57 E1.0698
G1 X165.064 Y144.208 E1.08864
G1 X164.999 Y144.033 E1.09725
G1 X164.803 Y143.217 E1.13614
G1 X164.557 Y142.646 E1.16496
G1 X164.43 Y142.255 E1.18399
G1 X164.394 Y142.072 E1.19261
G1 X164.365 Y141.694 E1.2102
G1 X164.396 Y141.279 E1.22945
G1 X164.519 Y140.788 E1.25291
G1 X164.62 Y140.513 E1.26649
G1 X164.804 Y140.149 E1.28536
G1 X164.907 Y139.994 E1.29397
G1 X165.16 Y139.696 E1.31212
G1 X165.467 Y139.432 E1.33085
G1 X166.175 Y138.998 E1.36935
G1 X166.812 Y138.454 E1.40814
M73 P50 R0
G1 X166.967 Y138.351 E1.41674
G1 X167.33 Y138.167 E1.43559
G1 X167.504 Y138.103 E1.4442
G1 X167.894 Y138.011 E1.46273
G1 X168.399 Y137.976 E1.48622
G1 X168.891 Y138.009 E1.50903
G1 X169.28 Y138.101 E1.52754
G1 X169.642 Y138.25 E1.5457
G1 X169.813 Y138.345 E1.55474
G1 X170.145 Y138.586 E1.57374
G1 X170.612 Y138.997 E1.60256
G1 X171.323 Y139.432 E1.64118
G1 X171.628 Y139.693 E1.65975
G1 X171.876 Y139.985 E1.6775
G1 X172.084 Y140.327 E1.69603
G1 X172.273 Y140.797 E1.71952
G1 X172.353 Y141.079 E1.73311
G1 X172.418 Y141.481 E1.75197
G1 X172.426 Y141.667 E1.76058
G1 X172.396 Y142.067 E1.77915
G1 X172.304 Y142.451 E1.79745
M73 P51 R0
G1 X171.986 Y143.219 E1.83596
G1 X171.792 Y144.028 E1.87448
G1 X171.638 Y144.398 E1.89305
G1 X171.547 Y144.56 E1.90166
G1 X171.31 Y144.884 E1.92023
G1 X171.025 Y145.166 E1.93882
G1 X170.544 Y145.516 E1.96641
G1 X170.186 Y145.7 E1.98501
G1 X169.825 Y145.819 E2.00261
G1 X169.622 Y145.861 E2.01222
G1 X169.313 Y145.886 E2.02658
G1 X168.93 Y145.37 F12000
G1 X169.263 Y145.379
;TYPE:Gap fill
;WIDTH:0.517313
G1 F840
G1 X169.255 Y145.379 E2.02689
;WIDTH:0.506544
G1 X169.223 Y145.381 E2.02811
;WIDTH:0.506545
G1 X169.203 Y145.38 E2.02888
;WIDTH:0.519842
G1 X168.659 Y145.33 E2.05056
;WIDTH:0.51984
G1 X168.413 Y145.316 E2.06033
;WIDTH:0.51023
G1 X168.395 Y145.315 E2.06104
;WIDTH:0.510228
G1 X168.377 Y145.316 E2.06175
;WIDTH:0.519611
G1 X168.137 Y145.33 E2.07127
;WIDTH:0.519613
G1 X167.721 Y145.371 E2.08783
;WIDTH:0.503667
G1 X167.694 Y145.373 E2.08888
;WIDTH:0.513756
G1 X167.566 Y145.378 E2.09387
;WIDTH:0.513755
G1 X167.428 Y145.372 E2.0993
;WIDTH:0.502804
G1 X167.392 Y145.369 E2.10069
;WIDTH:0.513761
G1 X167.254 Y145.353 E2.10612
